src/icons/drink-coffee.svg

<svg width="238" height="238" viewBox="0 0 238 238" fill="none" xmlns="http://www.w3.org/2000/svg">
<path d="M37.7112 47.231C30.0238 47.231 23.8001 53.4547 23.8001 61.1302V119.012C23.7837 136.926 30.5021 154.192 42.6221 167.383C54.7421 180.575 71.3782 188.729 89.2296 190.227C107.081 191.725 124.843 186.458 138.992 175.47C153.141 164.483 162.643 148.578 165.612 130.912H178.5C187.968 130.912 197.049 127.151 203.744 120.456C210.439 113.76 214.2 104.68 214.2 95.2118C214.2 85.7436 210.439 76.6632 203.744 69.9681C197.049 63.2731 187.968 59.5118 178.5 59.5118H166.505C166.106 56.1301 164.48 53.0122 161.936 50.7488C159.392 48.4854 156.106 47.2338 152.701 47.231H37.6993H37.7112ZM35.7001 61.1302C35.7001 60.0235 36.5926 59.131 37.7112 59.131H152.689C153.808 59.131 154.7 60.0235 154.7 61.1302V119.012C154.7 134.792 148.431 149.926 137.273 161.085C126.115 172.243 110.98 178.512 95.2001 178.512C79.4197 178.512 64.2856 172.243 53.1272 161.085C41.9688 149.926 35.7001 134.792 35.7001 119.012V61.1302ZM166.6 71.3999H178.5C184.812 71.3999 190.866 73.9074 195.329 78.3708C199.793 82.8342 202.3 88.8878 202.3 95.1999C202.3 101.512 199.793 107.566 195.329 112.029C190.866 116.492 184.812 119 178.5 119H166.6V71.3999Z" fill="#403F4C"/>
</svg>

<svg width="238" height="238" fill="none" xmlns="http://www.w3.org/2000/svg"><path d="M37.711 47.231c-7.687 0-13.91 6.224-13.91 13.9v57.881a71.397 71.397 0 0 0 65.429 71.215 71.397 71.397 0 0 0 76.382-59.315H178.5a35.7 35.7 0 1 0 0-71.4h-11.995a13.912 13.912 0 0 0-13.804-12.281H37.699h.012Zm-2.01 13.9c0-1.108.892-2 2.01-2H152.69c1.119 0 2.011.892 2.011 2v57.881a59.504 59.504 0 0 1-59.5 59.5 59.502 59.502 0 0 1-59.5-59.5V61.13ZM166.6 71.4h11.9a23.8 23.8 0 1 1 0 47.6h-11.9V71.4Z" fill="#403F4C"/></svg>
